Newaita-dark/mimetypes/16/audio-x-wav.svg

<?xml version="1.0" encoding="UTF-8"?>
<svg xmlns="http://www.w3.org/2000/svg" xmlns:xlink="http://www.w3.org/1999/xlink" width="16px" height="16px" viewBox="0 0 16 16" version="1.1">
<defs>
<linearGradient id="linear0" gradientUnits="userSpaceOnUse" x1="254" y1="233.5" x2="254" y2="254.666672" gradientTransform="matrix(0.031253,0,0,0.031253,0.33076,6.719392)">
<stop offset="0" style="stop-color:rgb(0%,0%,0%);stop-opacity:0.27451;"/>
<stop offset="1" style="stop-color:rgb(0%,0%,0%);stop-opacity:0;"/>
</linearGradient>
<radialGradient id="radial0" gradientUnits="userSpaceOnUse" cx="450.908936" cy="189.579361" fx="450.908936" fy="189.579361" r="21.166656" gradientTransform="matrix(0.0000000870852,-0.0390662,-0.0703192,-0.0000000507693,24.742285,31.797665)">
<stop offset="0" style="stop-color:rgb(0%,0%,0%);stop-opacity:0.313726;"/>
<stop offset="0.222222" style="stop-color:rgb(0%,0%,0%);stop-opacity:0.27451;"/>
<stop offset="1" style="stop-color:rgb(0%,0%,0%);stop-opacity:0;"/>
</radialGradient>
<radialGradient id="radial1" gradientUnits="userSpaceOnUse" cx="450.908936" cy="189.579361" fx="450.908936" fy="189.579361" r="21.166656" gradientTransform="matrix(-0.0000000870852,0.0390662,0.0703192,0.0000000507693,-9.196524,-3.76374)">
<stop offset="0" style="stop-color:rgb(0%,0%,0%);stop-opacity:0.313726;"/>
<stop offset="0.222222" style="stop-color:rgb(0%,0%,0%);stop-opacity:0.27451;"/>
<stop offset="1" style="stop-color:rgb(0%,0%,0%);stop-opacity:0;"/>
</radialGradient>
<radialGradient id="radial2" gradientUnits="userSpaceOnUse" cx="450.908936" cy="189.579361" fx="450.908936" fy="189.579361" r="21.166656" gradientTransform="matrix(-0.0000000870852,-0.0390662,0.0703192,-0.0000000507693,-9.196524,31.797665)">
<stop offset="0" style="stop-color:rgb(0%,0%,0%);stop-opacity:0.313726;"/>
<stop offset="0.222222" style="stop-color:rgb(0%,0%,0%);stop-opacity:0.27451;"/>
<stop offset="1" style="stop-color:rgb(0%,0%,0%);stop-opacity:0;"/>
</radialGradient>
<radialGradient id="radial3" gradientUnits="userSpaceOnUse" cx="450.908936" cy="189.579361" fx="450.908936" fy="189.579361" r="21.166656" gradientTransform="matrix(0.0000000870852,0.0390662,-0.0703192,0.0000000507693,24.742284,-3.763741)">
<stop offset="0" style="stop-color:rgb(0%,0%,0%);stop-opacity:0.313726;"/>
<stop offset="0.222222" style="stop-color:rgb(0%,0%,0%);stop-opacity:0.27451;"/>
<stop offset="1" style="stop-color:rgb(0%,0%,0%);stop-opacity:0;"/>
</radialGradient>
<linearGradient id="linear1" gradientUnits="userSpaceOnUse" x1="940" y1="1695.118164" x2="940" y2="175.118118" gradientTransform="matrix(0.00826902,0,0,0.00826902,0,0)">
<stop offset="0" style="stop-color:rgb(39.215687%,70.980394%,96.470588%);stop-opacity:1;"/>
<stop offset="1" style="stop-color:rgb(56.470591%,79.215688%,97.647059%);stop-opacity:1;"/>
</linearGradient>
<linearGradient id="linear2" gradientUnits="userSpaceOnUse" x1="249.189423" y1="233.5" x2="249.189423" y2="254.666687" gradientTransform="matrix(0.0149471,0,0,0.0546927,7.521212,-8.263145)">
<stop offset="0" style="stop-color:rgb(0%,0%,0%);stop-opacity:0.27451;"/>
<stop offset="1" style="stop-color:rgb(0%,0%,0%);stop-opacity:0;"/>
</linearGradient>
<linearGradient id="linear3" gradientUnits="userSpaceOnUse" x1="338.666656" y1="233.5" x2="338.666656" y2="-168.666672" gradientTransform="matrix(0.031253,0,0,0.031253,0,6.719392)">
<stop offset="0" style="stop-color:rgb(12.941177%,58.823532%,95.294118%);stop-opacity:1;"/>
<stop offset="1" style="stop-color:rgb(25.882354%,64.705884%,96.078432%);stop-opacity:1;"/>
</linearGradient>
<linearGradient id="linear4" gradientUnits="userSpaceOnUse" x1="429.598694" y1="1695.118164" x2="429.598694" y2="175.118088" gradientTransform="matrix(0.264583,0,0,0.264583,-60.74799,-215)">
<stop offset="0" style="stop-color:rgb(12.941177%,58.823532%,95.294118%);stop-opacity:1;"/>
<stop offset="1" style="stop-color:rgb(25.882354%,64.705884%,96.078432%);stop-opacity:1;"/>
</linearGradient>
</defs>
<g id="surface1">
<path style=" stroke:none;fill-rule:nonzero;fill:url(#linear0);" d="M 3.96875 14.015625 L 11.578125 14.015625 L 11.578125 14.679688 L 3.96875 14.679688 Z M 3.96875 14.015625 "/>
<path style=" stroke:none;fill-rule:nonzero;fill:url(#radial0);" d="M 11.578125 14.015625 L 12.898438 14.015625 L 12.898438 13.355469 L 11.578125 13.355469 Z M 11.578125 14.015625 "/>
<path style=" stroke:none;fill-rule:nonzero;fill:url(#radial1);" d="M 3.96875 14.015625 L 2.644531 14.015625 L 2.644531 14.679688 L 3.96875 14.679688 Z M 3.96875 14.015625 "/>
<path style=" stroke:none;fill-rule:nonzero;fill:url(#radial2);" d="M 3.96875 14.015625 L 2.644531 14.015625 L 2.644531 13.355469 L 3.96875 13.355469 Z M 3.96875 14.015625 "/>
<path style=" stroke:none;fill-rule:nonzero;fill:url(#radial3);" d="M 11.578125 14.015625 L 12.898438 14.015625 L 12.898438 14.679688 L 11.578125 14.679688 Z M 11.578125 14.015625 "/>
<path style=" stroke:none;fill-rule:nonzero;fill:url(#linear1);" d="M 9.269531 1.449219 L 3.308594 1.449219 C 2.941406 1.449219 2.644531 1.742188 2.644531 2.109375 L 2.644531 13.355469 C 2.644531 13.722656 2.941406 14.015625 3.308594 14.015625 L 12.238281 14.015625 C 12.605469 14.015625 12.898438 13.722656 12.898438 13.355469 L 12.898438 5.078125 Z M 9.269531 1.449219 "/>
<path style=" stroke:none;fill-rule:nonzero;fill:rgb(0%,0%,0%);fill-opacity:0.235294;" d="M 2.644531 13.097656 L 2.644531 13.355469 C 2.644531 13.722656 2.941406 14.015625 3.308594 14.015625 L 12.238281 14.015625 C 12.605469 14.015625 12.898438 13.722656 12.898438 13.355469 L 12.898438 13.097656 C 12.898438 13.464844 12.605469 13.761719 12.238281 13.761719 L 3.308594 13.761719 C 2.941406 13.761719 2.644531 13.464844 2.644531 13.097656 Z M 2.644531 13.097656 "/>
<path style=" stroke:none;fill-rule:nonzero;fill:url(#linear2);" d="M 9.261719 4.507812 L 12.402344 4.507812 L 12.898438 5.003906 L 12.898438 5.664062 L 9.261719 5.664062 Z M 9.261719 4.507812 "/>
<path style=" stroke:none;fill-rule:nonzero;fill:rgb(100%,100%,100%);fill-opacity:0.392157;" d="M 3.308594 1.449219 C 2.941406 1.449219 2.644531 1.742188 2.644531 2.109375 L 2.644531 2.359375 C 2.644531 1.992188 2.941406 1.695312 3.308594 1.695312 L 9.269531 1.695312 L 12.898438 5.324219 L 12.898438 5.078125 L 9.269531 1.449219 Z M 3.308594 1.449219 "/>
<path style=" stroke:none;fill-rule:nonzero;fill:url(#linear3);" d="M 12.898438 5.078125 L 9.269531 1.449219 L 9.269531 4.414062 C 9.269531 4.78125 9.566406 5.078125 9.933594 5.078125 Z M 12.898438 5.078125 "/>
<path style=" stroke:none;fill-rule:nonzero;fill:rgb(0%,0%,0%);fill-opacity:0.235294;" d="M 9.269531 4.257812 L 9.269531 4.414062 C 9.269531 4.78125 9.566406 5.078125 9.933594 5.078125 L 12.898438 5.078125 L 12.742188 4.921875 L 9.933594 4.921875 C 9.566406 4.921875 9.269531 4.625 9.269531 4.257812 Z M 9.269531 4.257812 "/>
<path style=" stroke:none;fill-rule:nonzero;fill:rgb(100%,100%,100%);fill-opacity:0.392157;" d="M 9.269531 1.449219 L 9.269531 1.695312 L 12.652344 5.078125 L 12.898438 5.078125 Z M 9.269531 1.449219 "/>
<path style=" stroke:none;fill-rule:nonzero;fill:rgb(12.941177%,12.941177%,12.941177%);fill-opacity:1;" d="M 9.269531 1.402344 C 9.246094 1.402344 9.222656 1.421875 9.222656 1.449219 L 9.222656 4.414062 C 9.222656 4.808594 9.539062 5.125 9.933594 5.125 L 12.898438 5.125 C 12.917969 5.125 12.9375 5.113281 12.941406 5.09375 C 12.949219 5.078125 12.945312 5.058594 12.933594 5.042969 L 9.304688 1.414062 C 9.296875 1.40625 9.28125 1.402344 9.269531 1.402344 Z M 9.316406 1.5625 L 12.785156 5.03125 L 9.933594 5.03125 C 9.589844 5.03125 9.316406 4.757812 9.316406 4.414062 Z M 9.316406 1.5625 "/>
<path style=" stroke:none;fill-rule:nonzero;fill:rgb(12.941177%,12.941177%,12.941177%);fill-opacity:1;" d="M 3.308594 1.402344 C 2.914062 1.402344 2.597656 1.71875 2.597656 2.109375 L 2.597656 13.355469 C 2.597656 13.746094 2.914062 14.0625 3.308594 14.0625 L 12.238281 14.0625 C 12.628906 14.0625 12.945312 13.746094 12.945312 13.355469 L 12.945312 5.078125 C 12.945312 5.0625 12.941406 5.050781 12.933594 5.042969 L 9.304688 1.414062 C 9.296875 1.40625 9.285156 1.402344 9.269531 1.402344 Z M 3.308594 1.496094 L 9.25 1.496094 L 12.851562 5.097656 L 12.851562 13.355469 C 12.851562 13.695312 12.578125 13.96875 12.238281 13.96875 L 3.308594 13.96875 C 2.964844 13.96875 2.691406 13.695312 2.691406 13.355469 L 2.691406 2.109375 C 2.691406 1.769531 2.964844 1.496094 3.308594 1.496094 Z M 3.308594 1.496094 "/>
<path style="fill-rule:nonzero;fill:url(#linear4);stroke-width:3;stroke-linecap:round;stroke-linejoin:round;stroke:rgb(12.941177%,12.941177%,12.941177%);stroke-opacity:1;stroke-miterlimit:4;" d="M 206.355294 -31.142558 C 203.480569 -31.142558 201.105795 -28.767784 201.105795 -25.768071 L 201.105795 75.972214 C 197.731118 75.222285 194.231452 74.722333 190.48181 74.722333 C 172.858493 74.722333 158.734842 84.221426 158.734842 95.970304 C 158.734842 107.594194 172.858493 117.093287 190.48181 117.093287 C 208.105127 117.093287 222.228778 107.594194 222.228778 95.970304 L 222.228778 -9.894587 L 296.3467 -9.894587 L 296.3467 54.724243 C 292.972023 53.974314 289.472357 53.59935 285.722715 53.59935 C 268.099398 53.59935 253.975747 62.973455 253.975747 74.722333 C 253.975747 86.471211 268.099398 95.970304 285.722715 95.970304 C 303.346032 95.970304 317.469683 86.471211 317.469683 74.722333 L 317.469683 -25.768071 C 317.469683 -28.767784 315.09491 -31.142558 312.220184 -31.142558 Z M 206.355294 -31.142558 " transform="matrix(0.031253,0,0,0.031253,0,6.719392)"/>
</g>
</svg>

<svg xmlns="http://www.w3.org/2000/svg" width="16pt" height="16pt" viewBox="0 0 16 16"><defs><linearGradient id="a" gradientUnits="userSpaceOnUse" x1="254" y1="233.5" x2="254" y2="254.667" gradientTransform="matrix(.03125 0 0 .03125 .33 6.72)"><stop offset="0" stop-opacity=".275"/><stop offset="1" stop-opacity="0"/></linearGradient><radialGradient id="b" gradientUnits="userSpaceOnUse" cx="450.909" cy="189.579" fx="450.909" fy="189.579" r="21.167" gradientTransform="matrix(0 -.03907 -.07032 0 24.742 31.798)"><stop offset="0" stop-opacity=".314"/><stop offset=".222" stop-opacity=".275"/><stop offset="1" stop-opacity="0"/></radialGradient><radialGradient id="c" gradientUnits="userSpaceOnUse" cx="450.909" cy="189.579" fx="450.909" fy="189.579" r="21.167" gradientTransform="matrix(0 .03907 .07032 0 -9.197 -3.764)"><stop offset="0" stop-opacity=".314"/><stop offset=".222" stop-opacity=".275"/><stop offset="1" stop-opacity="0"/></radialGradient><radialGradient id="d" gradientUnits="userSpaceOnUse" cx="450.909" cy="189.579" fx="450.909" fy="189.579" r="21.167" gradientTransform="matrix(0 -.03907 .07032 0 -9.197 31.798)"><stop offset="0" stop-opacity=".314"/><stop offset=".222" stop-opacity=".275"/><stop offset="1" stop-opacity="0"/></radialGradient><radialGradient id="e" gradientUnits="userSpaceOnUse" cx="450.909" cy="189.579" fx="450.909" fy="189.579" r="21.167" gradientTransform="matrix(0 .03907 -.07032 0 24.742 -3.764)"><stop offset="0" stop-opacity=".314"/><stop offset=".222" stop-opacity=".275"/><stop offset="1" stop-opacity="0"/></radialGradient><linearGradient id="f" gradientUnits="userSpaceOnUse" x1="940" y1="1695.118" x2="940" y2="175.118" gradientTransform="rotate(.882) scale(.00827)"><stop offset="0" stop-color="#64b5f6"/><stop offset="1" stop-color="#90caf9"/></linearGradient><linearGradient id="g" gradientUnits="userSpaceOnUse" x1="249.189" y1="233.5" x2="249.189" y2="254.667" gradientTransform="matrix(.01495 0 0 .0547 7.521 -8.263)"><stop offset="0" stop-opacity=".275"/><stop offset="1" stop-opacity="0"/></linearGradient><linearGradient id="h" gradientUnits="userSpaceOnUse" x1="338.667" y1="233.5" x2="338.667" y2="-168.667" gradientTransform="matrix(.03125 0 0 .03125 0 6.72)"><stop offset="0" stop-color="#2196f3"/><stop offset="1" stop-color="#42a5f5"/></linearGradient><linearGradient id="i" gradientUnits="userSpaceOnUse" x1="429.599" y1="1695.118" x2="429.599" y2="175.118" gradientTransform="matrix(.26458 0 0 .26458 -60.748 -215)"><stop offset="0" stop-color="#2196f3"/><stop offset="1" stop-color="#42a5f5"/></linearGradient></defs><path d="M3.969 14.016h7.61v.664h-7.61zm0 0" fill="url(#a)"/><path d="M11.578 14.016h1.32v-.66h-1.32zm0 0" fill="url(#b)"/><path d="M3.969 14.016H2.645v.664h1.324zm0 0" fill="url(#c)"/><path d="M3.969 14.016H2.645v-.66h1.324zm0 0" fill="url(#d)"/><path d="M11.578 14.016h1.32v.664h-1.32zm0 0" fill="url(#e)"/><path d="M9.27 1.45H3.309a.66.66 0 0 0-.664.66v11.245c0 .368.296.66.664.66h8.93c.366 0 .66-.292.66-.66V5.078zm0 0" fill="url(#f)"/><path d="M2.645 13.098v.257c0 .368.296.66.664.66h8.93c.366 0 .66-.292.66-.66v-.257a.66.66 0 0 1-.66.664h-8.93a.664.664 0 0 1-.664-.664zm0 0" fill-opacity=".235"/><path d="M9.262 4.508h3.14l.496.496v.66H9.262zm0 0" fill="url(#g)"/><path d="M3.309 1.45a.66.66 0 0 0-.664.66v.25c0-.368.296-.665.664-.665h5.96l3.63 3.63v-.247L9.268 1.45zm0 0" fill="#fff" fill-opacity=".392"/><path d="M12.898 5.078L9.27 1.45v2.965c0 .367.296.664.664.664zm0 0" fill="url(#h)"/><path d="M9.27 4.258v.156c0 .367.296.664.664.664h2.964l-.156-.156H9.934a.664.664 0 0 1-.664-.664zm0 0" fill-opacity=".235"/><path d="M9.27 1.45v.245l3.382 3.383h.246zm0 0" fill="#fff" fill-opacity=".392"/><path d="M9.27 1.402a.047.047 0 0 0-.047.047v2.965c0 .395.316.711.71.711h2.965c.02 0 .04-.012.043-.031.008-.016.004-.035-.007-.051l-3.63-3.629c-.007-.008-.023-.012-.034-.012zm.046.16l3.47 3.47H9.933a.614.614 0 0 1-.618-.618zm0 0" fill="#212121"/><path d="M3.309 1.402a.708.708 0 0 0-.711.707v11.246c0 .391.316.707.71.707h8.93c.39 0 .707-.316.707-.707V5.078c0-.016-.004-.027-.011-.035l-3.63-3.629c-.007-.008-.019-.012-.034-.012zm0 .094H9.25l3.602 3.602v8.257c0 .34-.274.614-.614.614h-8.93a.613.613 0 0 1-.617-.614V2.11c0-.34.274-.613.618-.613zm0 0" fill="#212121"/><path d="M206.355-31.143c-2.874 0-5.25 2.375-5.25 5.375v101.74c-3.374-.75-6.874-1.25-10.623-1.25-17.624 0-31.747 9.5-31.747 21.248 0 11.624 14.123 21.123 31.747 21.123 17.623 0 31.747-9.499 31.747-21.123V-9.895h74.118v64.62c-3.375-.75-6.875-1.126-10.624-1.126-17.624 0-31.747 9.374-31.747 21.123 0 11.75 14.123 21.248 31.747 21.248 17.623 0 31.747-9.499 31.747-21.248v-100.49c0-3-2.375-5.375-5.25-5.375zm0 0" transform="matrix(.03125 0 0 .03125 0 6.72)" fill="url(#i)" stroke-width="3" stroke-linecap="round" stroke-linejoin="round" stroke="#212121"/></svg>
